spyder/images/dark/genprefs.svg

<svg xmlns="http://www.w3.org/2000/svg" width="24" height="24" fill="none"><path fill="#FAFAFA" fill-rule="evenodd" d="M21 3H3v2h18V3ZM11 21H3V7h8v14Zm10 0h-8v-6h8v6Zm-8-8V7h8v6h-8Z" clip-rule="evenodd"/></svg>

<svg width="24" height="24" viewBox="0 0 24 24" fill="none" xmlns="http://www.w3.org/2000/svg">
<path fill-rule="evenodd" clip-rule="evenodd" d="M21 3H3V5H21V3ZM11 21H3V7H11V21ZM21 21H13V15H21V21ZM13 13V7H21V13H13Z" fill="#FAFAFA"/>
</svg>
